img/arrow.svg

<?xml version="1.0" encoding="UTF-8"?>
<svg width="24px" height="26px" viewBox="0 0 24 26" version="1.1" xmlns="http://www.w3.org/2000/svg" xmlns:xlink="http://www.w3.org/1999/xlink">
    <!-- Generator: Sketch 54.1 (76490) - https://sketchapp.com -->
    <title>arrow</title>
    <desc>Created with Sketch.</desc>
    <defs>
        <path d="M80.3333333,88.6666667 L83,88.6666667 L83,91.3333333 L80.3333333,91.3333333 L80.3333333,94 L77.6666667,94 L77.6666667,91.3333333 C71.4444444,91.3333333 65.2222222,91.3333333 59,91.3333333 L59,88.6666667 C65.2222222,88.6666667 71.4444444,88.6666667 77.6666667,88.6666667 L77.6666667,86 L80.3333333,86 L80.3333333,88.6666667 Z M75,83.3333333 L77.6666667,83.3333333 L77.6666667,86 L75,86 L75,83.3333333 Z M72.3333333,80.6666667 L75,80.6666667 L75,83.3333333 L72.3333333,83.3333333 L72.3333333,80.6666667 Z M69.6666667,78 L72.3333333,78 L72.3333333,80.6666667 L69.6666667,80.6666667 L69.6666667,78 Z M75,96.6666667 L75,94 L77.6666667,94 L77.6666667,96.6666667 L75,96.6666667 Z M72.3333333,99.3333333 L72.3333333,96.6666667 L75,96.6666667 L75,99.3333333 L72.3333333,99.3333333 Z M69.6666667,102 L69.6666667,99.3333333 L72.3333333,99.3333333 L72.3333333,102 L69.6666667,102 Z" id="path-1"></path>
        <filter x="-4.2%" y="-4.2%" width="108.3%" height="116.7%" filterUnits="objectBoundingBox" id="filter-2">
            <feOffset dx="0" dy="2" in="SourceAlpha" result="shadowOffsetOuter1"></feOffset>
            <feColorMatrix values="0 0 0 0 0.96823281   0 0 0 0 0.78809464   0 0 0 0 0.952825725  0 0 0 1 0" type="matrix" in="shadowOffsetOuter1"></feColorMatrix>
        </filter>
    </defs>
    <g id="Page-1" stroke="none" stroke-width="1" fill="none" fill-rule="evenodd">
        <g id="gifOS_captura_7_exito" transform="translate(-60.000000, -77.000000)" fill-rule="nonzero">
            <g id="nav-bar" transform="translate(1.000000, 1.000000)">
                <g id="arrow" transform="translate(71.000000, 90.000000) rotate(-180.000000) translate(-71.000000, -90.000000) ">
                    <use fill="black" fill-opacity="1" filter="url(#filter-2)" xlink:href="#path-1"></use>
                    <use fill="#110038" xlink:href="#path-1"></use>
                </g>
            </g>
        </g>
    </g>
</svg>

<svg width="24" height="26" xmlns="http://www.w3.org/2000/svg" xmlns:xlink="http://www.w3.org/1999/xlink"><defs><filter x="-4.2%" y="-4.2%" width="108.3%" height="116.7%" filterUnits="objectBoundingBox" id="a"><feOffset dy="2" in="SourceAlpha" result="shadowOffsetOuter1"/><feColorMatrix values="0 0 0 0 0.96823281 0 0 0 0 0.78809464 0 0 0 0 0.952825725 0 0 0 1 0" in="shadowOffsetOuter1"/></filter><path d="M80.3 88.7H83v2.6h-2.7V94h-2.6v-2.7H59v-2.6h18.7V86h2.6v2.7zM75 83.3h2.7V86H75v-2.7zm-2.7-2.6H75v2.6h-2.7v-2.6zM69.7 78h2.6v2.7h-2.6V78zM75 96.7V94h2.7v2.7H75zm-2.7 2.6v-2.6H75v2.6h-2.7zm-2.6 2.7v-2.7h2.6v2.7h-2.6z" id="b"/></defs><g transform="rotate(-180 41.5 52)" fill-rule="nonzero" fill="none"><use fill="#000" filter="url(#a)" xlink:href="#b"/><use fill="#110038" xlink:href="#b"/></g></svg>
